X: 16763
T: Hare's Paw, The
R: reel
M: 4/4
K: Gmajor
~G3A BE~E2|dBAc BE~E2|~G3A BABd|egfg edBA|
~G3A BE~E2|dBAc BE~E2|~G3A BABd|egfg edB/c/d||
g2 af gfed|B/c/dgd B/c/def|g2 af gfed|B/c/defe3f|
g2 af gfed|B/c/dgd B/c/dga|bgaf gfed|egfg edBA||

